!!!OTL: 54. Skotshne
!!!Genre:	Skotshne
!!!Mode:	Altered Dorian
!!!Listening/dance:	listening
!!!:	*G:
!!!One_Mode:	no
**kern
*thru
*I"P1
*clefG2
*>A
*k[b-]
*g:dor
*M2/4
=1
!LO:TX:a:i:t=G-raised-fourth
8dL
8g
8b-
8ddJ
=2
16cc#XLL
16dd
16ee
16ddJJ
16cc#LL
16b-
16a
16gJJ
=3
16cc#XLL
16dd
16ee
16ddJJ
16cc#LL
16b-
16a
16b-JJ
=4
(16cc#XLL
16eeJ
8ddJ)
4gg
=5
8dL
8g
8b-
8ddJ
=6
16cc#XLL
16dd
16ee
16ddJJ
16cc#LL
16b-
16a
16gJJ
=7
16b-LL
16a
16ccnX
16b-JJ
16ddLL
16cc
16b-
16aJJ
=8
4g
4G
=1||
!LO:TX:a:i:t=G-raised-fourth
8dL
8g
8b-
8ddJ
=2
16cc#XLL
16dd
16ee
16ddJJ
16cc#LL
16b-
16a
16gJJ
=3
16cc#XLL
16dd
16ee
16ddJJ
16cc#LL
16b-
16a
16b-JJ
=4
(16cc#XLL
16eeJ
8ddJ)
4gg
=5
8dL
8g
8b-
8ddJ
=6
16cc#XLL
16dd
16ee
16ddJJ
16cc#LL
16b-
16a
16gJJ
=7
16b-LL
16a
16ccnX
16b-JJ
16ddLL
16cc
16b-
16aJJ
=8
4g
4G
=9:|!|:
*>B
16ggLL
16ff
16ee
16ddJJ
8cc#XL
8b-J
=10
16cc#XLL
(8qee/
16dd)
16cc#
16b-JJ
8aL
8gJ
=11
16aLL
16b-
16cc#X
16ddJJ
(8qdd/
16cc#LL)
16b-
16a
16gJJ
=12
4dd
4gg
=13
16ggLL
16aa
16bb-
16aaJJ
16ggLL
16ff
16ee
16ddJJ
=14
16eeLL
16ff
16gg
16ffJJ
16eeLL
16dd
16cc#X
16b-JJ
=15
16cc#XLL
16dd
16ee
16ddJJ
16cc#LL
16b-
16a
16b-JJ
*>B1
=16
2g
*>B
16ggLL
16ff
16ee
16ddJJ
8cc#XL
8b-J
=10
16cc#XLL
(8qee/
16dd)
16cc#
16b-JJ
8aL
8gJ
=11
16aLL
16b-
16cc#X
16ddJJ
(8qdd/
16cc#LL)
16b-
16a
16gJJ
=12
4dd
4gg
=13
16ggLL
16aa
16bb-
16aaJJ
16ggLL
16ff
16ee
16ddJJ
=14
16eeLL
16ff
16gg
16ffJJ
16eeLL
16dd
16cc#X
16b-JJ
=15
16cc#XLL
16dd
16ee
16ddJJ
16cc#LL
16b-
16a
16b-JJ
*>B2
=17:|!
[4g
16gLL]
16d
16g
16aJJ
*>C
!!!Begin-Modulation
*g:dor
!LO:TX:a:i:t=G-raised-fourth
=27||
*k[b-]
16aLL
16b-
16a
16b-JJ
16cc#XLL
16dd
16cc#
16ddJJ
=28
16eeLL
16ff
16ee
16ddJJ
16cc#XLL
16b-
16a
16gJJ
=29
16aLL
16b-
16cc#X
16ddJJ
16eeLL
16dd
16cc#
16b-JJ
=30
8aL
8aa
8aa
8aaJ
=31
16aLL
16b-
16a
16b-JJ
16cc#XLL
16dd
16cc#
16ddJJ
=32
16eeLL
16ff
16ee
16ddJJ
16cc#XLL
16b-
16a
16gJJ
=33
16cc#XLL
16dd
16ee
16ddJJ
16cc#LL
16b-
16a
16b-JJ
=34
2g
=35||
*>E
8dL
8g
8b-
8ddJ
=36
16cc#XLL
16dd
16cc#
16b-JJ
8aL
8gJ
=37
8ddL
8cc#XJ
16b-LL
16a
16b-
16cc#JJ
=38
4dd
4gg
=39
8dL
8g
8b-
8ddJ
=40
16cc#XLL
16dd
16cc#
16b-JJ
8aL
8gJ
=41
8ddL
8cc#XJ
16b-LL
16aJ
8ddJ
=42
2g
=43!|:
*>F
2gg
=44
2gg
=45
4gg
4gg
=46
4gg
4gg
=47
8ggL
16ffL
16eeJJ
8ddL
8cc#XJ
=48
16ddLL
16cc#X
16b-
16aJJ
4g
=49
8ggL
16ffL
16eeJJ
8ddL
8cc#XJ
=50
4dd
4gg
=51
8ggL
16ffL
16eeJJ
8ddL
8cc#XJ
=52
16ddLL
16cc#X
16b-
16aJJ
4g
=53
16b-LL
16a
16ccn
16b-JJ
16ddLL
16cc
16b-
16aJJ
=54
2g
=43!|:
*>F
2gg
=44
2gg
=45
4gg
4gg
=46
4gg
4gg
=47
8ggL
16ffL
16eeJJ
8ddL
8cc#XJ
=48
16ddLL
16cc#X
16b-
16aJJ
4g
=49
8ggL
16ffL
16eeJJ
8ddL
8cc#XJ
=50
4dd
4gg
=51
8ggL
16ffL
16eeJJ
8ddL
8cc#XJ
=52
16ddLL
16cc#X
16b-
16aJJ
4g
=53
16b-LL
16a
16ccn
16b-JJ
16ddLL
16cc
16b-
16aJJ
=54
2g
*>G
!!!Begin-Modulation
*-
